X:1
T:Title
%%score { ( 1 4 ) | ( 2 3 ) }
L:1/8
Q:1/4=116
M:4/4
K:G
V:1 treble nm="Grand Piano"
V:4 treble 
V:2 bass 
V:3 bass 
V:1
 [B,G]2 [CA]2 [DB]2 [DA]2 | [DG]2 [DF]2 E4 | D2 [DG]2 [CF]2 [B,G]2 | [DB]4 [DA]4 | %4
w: G.~F.~Root * * *||||
 [B,G]2 [CA]2 [DB]2 [DA]2 | [DG]2 [DF]2 E4 | D2 [DG]2 [CF]2 [B,G]2 | [CA]4 [B,G]4 | B2 d2 ^c2 d2 | %9
w: |||||
 e2 d2 B4 | [DG]2 [Dd]2 [Dd]2 [Ec]2 | B4 A4 | B2 d2 ^c2 d2 | e2 d2 B4 | [G,DG]2 [Dd]2 [Dd]2 [DB]2 | %15
w: ||||||
 [CA]4 [B,G]4 | g2 e2 d2 B2 | g2 e2 d2 B2 | G2 z2 d2 B2 | A4 z4 |] %20
w: |||||
V:2
 [G,,G,]2 [G,,G,]2 [G,,G,]2 [A,,F,]2 | [B,,G,]2 [B,,G,]2 [C,G,C]4 | %2
 [B,,G,]2 [B,,G,]2 [A,,D,]2 [G,,G,]2 | [D,G,]4 [D,F,]4 | [G,,G,]2 [G,,G,]2 [G,,G,]2 [A,,F,]2 | %5
 [B,,G,]2 [B,,G,]2 [C,G,C]4 | [B,,G,]2 [B,,G,]2 [A,,D,]2 [G,,G,]2 | [D,F,]4 [G,,G,]4 | %8
 [G,D]2 [G,B,G]2 [G,_B,G]2 [G,=B,G]2 | [G,CG]2 [G,B,G]2[K:bass] [G,D]4 | %10
 [B,,G,]2 [B,,G,]2 [B,,G,]2 [C,G,]2 | [D,G,D]4 [D,F,D]4 | [G,D]2 [G,B,G]2 [G,_B,G]2 [G,=B,G]2 | %13
 [G,CG]2 [G,B,G]2[K:bass] [G,D]4 | B,,2 B,,2 [B,,G,]2 [G,,G,]2 | [D,F,]4 [G,,G,]4 | E2 z2 z4 | %17
 E2 z2 z4 | z2 d2 G,2- [G,,G,]2 | D2 z2 z4 |] %20
V:3
 x8 | x8 | x8 | x8 | x8 | x8 | x8 | x8 | x8 | x4[K:bass] x4 | x8 | x8 | x8 | x4[K:bass] x4 | x8 | %15
 x8 | [G,G]2- [G,-CG-]2 [G,-B,G-]2 [G,DG]2 | [G,G]2- [G,-CG-]2 [G,-B,G-]2 [G,DG]2 | B,,4 B,,2 z2 | %19
 [D,F,]4 [G,,G,]4 |] %20
V:4
 x8 | x8 | x8 | x8 | x8 | x8 | x8 | x8 | x8 | x8 | x8 | x8 | x8 | x8 | x8 | x8 | x8 | x8 | %18
 [G,D]4 D4 | z2 C2 [B,G]4 |] %20

